logos/aws-s3.svg

<?xml version="1.0" encoding="UTF-8"?>
<svg width="256px" height="256px" viewBox="0 0 256 256" version="1.1" xmlns="http://www.w3.org/2000/svg" xmlns:xlink="http://www.w3.org/1999/xlink" preserveAspectRatio="xMidYMid">
    <title>AWS Simple Storage Service (S3)</title>
    <defs>
        <linearGradient x1="0%" y1="100%" x2="100%" y2="0%" id="linearGradient-1">
            <stop stop-color="#1B660F" offset="0%"></stop>
            <stop stop-color="#6CAE3E" offset="100%"></stop>
        </linearGradient>
    </defs>
    <g>
        <rect fill="url(#linearGradient-1)" x="0" y="0" width="256" height="256"></rect>
        <path d="M194.67488,137.25632 L195.90368,128.60352 C207.23488,135.39072 207.38208,138.19392 207.378964,138.27072 C207.35968,138.28672 205.42688,139.89952 194.67488,137.25632 L194.67488,137.25632 Z M188.45728,135.52832 C168.87328,129.60192 141.59968,117.08992 130.56288,111.87392 C130.56288,111.82912 130.57568,111.78752 130.57568,111.74272 C130.57568,107.50272 127.12608,104.05312 122.88288,104.05312 C118.64608,104.05312 115.19648,107.50272 115.19648,111.74272 C115.19648,115.98272 118.64608,119.43232 122.88288,119.43232 C124.74528,119.43232 126.43488,118.73792 127.76928,117.63392 C140.75488,123.78112 167.81728,136.11072 187.54528,141.93472 L179.74368,196.99392 C179.72128,197.14432 179.71168,197.29472 179.71168,197.44512 C179.71168,202.29312 158.24928,211.19872 123.18048,211.19872 C87.74048,211.19872 66.05088,202.29312 66.05088,197.44512 C66.05088,197.29792 66.04128,197.15392 66.02208,197.00992 L49.72128,77.94752 C63.83008,87.65952 94.17568,92.79872 123.19968,92.79872 C152.17888,92.79872 182.47328,87.67872 196.61088,77.99552 L188.45728,135.52832 Z M47.99968,65.52832 C48.23008,61.31712 72.42848,44.79872 123.19968,44.79872 C173.96448,44.79872 198.16608,61.31392 198.39968,65.52832 L198.39968,66.96512 C195.61568,76.40832 164.25568,86.39872 123.19968,86.39872 C82.07328,86.39872 50.69728,76.37632 47.99968,66.92032 L47.99968,65.52832 Z M204.79968,65.59872 C204.79968,54.51072 173.01088,38.39872 123.19968,38.39872 C73.38848,38.39872 41.59968,54.51072 41.59968,65.59872 L41.90048,68.01152 L59.65408,197.68832 C60.07968,212.19072 98.75488,217.59872 123.18048,217.59872 C153.49088,217.59872 185.69248,210.62912 186.10848,197.69792 L193.77568,143.62752 C198.04128,144.64832 201.55168,145.16992 204.37088,145.16992 C208.15648,145.16992 210.71648,144.24512 212.26848,142.39552 C213.54208,140.87872 214.02848,139.04192 213.66368,137.08672 C212.83488,132.65792 207.57728,127.88352 196.87008,121.77472 L204.47328,68.13632 L204.79968,65.59872 Z" fill="#FFFFFF"></path>
    </g>
</svg>

<svg preserveAspectRatio="xMidYMid" viewBox="0 0 256 256" xmlns="http://www.w3.org/2000/svg">
  <defs>
    <linearGradient id="aws-s3_svg__a" x1="0%" x2="100%" y1="100%" y2="0%">
      <stop offset="0%" stop-color="#1B660F"/>
      <stop offset="100%" stop-color="#6CAE3E"/>
    </linearGradient>
  </defs>
  <path fill="url(#aws-s3_svg__a)" d="M0 0h256v256H0z"/>
  <path fill="#FFF" d="m194.675 137.256 1.229-8.652c11.33 6.787 11.478 9.59 11.475 9.667-.02.016-1.952 1.629-12.704-1.015Zm-6.218-1.728c-19.584-5.926-46.857-18.438-57.894-23.654 0-.045.013-.086.013-.131 0-4.24-3.45-7.69-7.693-7.69-4.237 0-7.687 3.45-7.687 7.69s3.45 7.69 7.687 7.69c1.862 0 3.552-.695 4.886-1.8 12.986 6.148 40.048 18.478 59.776 24.302l-7.801 55.059c-.023.15-.032.3-.032.451 0 4.848-21.463 13.754-56.532 13.754-35.44 0-57.13-8.906-57.13-13.754a3.31 3.31 0 0 0-.028-.435l-16.3-119.062c14.108 9.712 44.454 14.85 73.478 14.85 28.979 0 59.273-5.12 73.41-14.802l-8.153 57.532ZM48 65.528c.23-4.21 24.428-20.73 75.2-20.73 50.764 0 74.966 16.516 75.2 20.73v1.437c-2.784 9.443-34.144 19.434-75.2 19.434-41.127 0-72.503-10.023-75.2-19.479v-1.392Zm156.8.07c0-11.087-31.79-27.2-81.6-27.2-49.812 0-81.6 16.113-81.6 27.2l.3 2.414 17.754 129.676c.426 14.503 39.1 19.91 63.526 19.91 30.31 0 62.512-6.969 62.928-19.9l7.668-54.07c4.265 1.02 7.776 1.542 10.595 1.542 3.785 0 6.345-.925 7.897-2.774 1.274-1.517 1.76-3.354 1.396-5.31-.83-4.428-6.087-9.202-16.794-15.311l7.603-53.639.327-2.537Z"/>
</svg>
